assets/delete-button.svg

<svg width="13" height="15" viewBox="0 0 13 15" fill="none" xmlns="http://www.w3.org/2000/svg">
<path fill-rule="evenodd" clip-rule="evenodd" d="M10 11.5V5.5C10 5.224 9.776 5 9.5 5C9.224 5 9 5.224 9 5.5V11.5C9 11.776 9.224 12 9.5 12C9.776 12 10 11.776 10 11.5ZM4 11.5V5.5C4 5.224 3.776 5 3.5 5C3.224 5 3 5.224 3 5.5V11.5C3 11.776 3.224 12 3.5 12C3.776 12 4 11.776 4 11.5ZM7 11.5V5.5C7 5.224 6.776 5 6.5 5C6.224 5 6 5.224 6 5.5V11.5C6 11.776 6.224 12 6.5 12C6.776 12 7 11.776 7 11.5ZM11 15H2C1.448 15 1 14.552 1 14V4H12V14C12 14.552 11.552 15 11 15ZM5 2H8V1H5V2ZM12.5 2H9V1C9 0.448 8.552 0 8 0H5C4.448 0 4 0.448 4 1V2H0.5C0.224 2 0 2.224 0 2.5C0 2.776 0.224 3 0.5 3H12.5C12.776 3 13 2.776 13 2.5C13 2.224 12.776 2 12.5 2Z" fill="#2993E5"/>
</svg>

<svg xmlns="http://www.w3.org/2000/svg" width="13" height="15" viewBox="0 0 13 15">
    <path fill="#2993E5" fill-rule="evenodd" d="M10 11.5v-6a.5.5 0 0 0-1 0v6a.5.5 0 0 0 1 0zm-6 0v-6a.5.5 0 0 0-1 0v6a.5.5 0 0 0 1 0zm3 0v-6a.5.5 0 0 0-1 0v6a.5.5 0 0 0 1 0zm4 3.5H2a1 1 0 0 1-1-1V4h11v10a1 1 0 0 1-1 1zM5 2h3V1H5v1zm7.5 0H9V1a1 1 0 0 0-1-1H5a1 1 0 0 0-1 1v1H.5a.5.5 0 0 0 0 1h12a.5.5 0 0 0 0-1z"/>
</svg>
